X:1
T:The Wind and the Leaves
T:The Wind and the Leaves
T:Copyright © CPDL
T:Copyright © CPDL
T:Copyright © CPDL
T:Copyright © CPDL
Z:Copyright © CPDL
%%score 1 2 { ( 3 4 5 ) ( 6 7 ) }
L:1/8
Q:1/4=72
M:3/4
K:G
V:1 treble nm="1st Treble" snm="Tr.1"
V:2 treble nm="2nd Treble" snm="Tr.2"
V:3 treble nm="Piano" snm="Pno."
V:4 treble 
V:5 treble 
V:6 bass nm="P4"
V:7 bass 
V:1
"^Editor: John Henry Fowler""^(  Revision:   8 - 17 - 2008  )""^Playfully, but slow""^From \"Three School Songs\" -  1918 -  Number 3""^Words by George Cooper." z6 | %1
w: |
 z6 |!p!"^Charles Hubert Hastings Parry" B3"^( 1848 - 1918 )" c/d/ AB/c/ | z6 | %4
w: |"Come lit- tle leaves" said the||
 d3 c/B/ c/B/ z/ A/ | !tenuto!B!tenuto!e !tenuto!d2 z2 | GA/B/ c/B/ z/ A/ Bd | A4 z2 | %8
w: "Come o'er the mea- dows with|me and play,|Put on your dress- es of red and|gold|
!p!"^poco cresc." FG/A/ G2 AB/c/ | B3!<(! c/d/ e!<)!d |!>(! B3"^poco rit." A/G/ BA!>)! | G4 z2 | %12
w: Sum- mer is gone, Sum- mer is|gone, And the days grow|cold, and the days grow|cold."|
 z6 ||!p! GA/B/ A3 z | A2 (cB/)A/ Bc/d/ | ce E2 z E | GA/B/ AE!<(! AB/c/!<)! | B4!f!!>(! e!>)!d | %18
w: |they were con- tent,|Soon, fast _ a- sleep in their|earth- y beds, The|snow laid a blan- ket o- ver their|heads, laid a|
!mf!"^dim. e  rit." B(A/G/)!p! (B2!<)!!<(! c/!>(!B/)!>)!A |"^a tempo" G4 z2 | z6 | z6 |] %22
w: blan- ket _ o~\-- * \-~~ver their|heads.|||
V:2
 z6 | z6 |!p! GF/E/ D4 | GF/E/ DE/F/ EF/G/ | !tenuto!F!tenuto!G !tenuto!A2 z2 | %5
w: ||"Come lit- tle leaves|"Come lit- tle leaves lit- tle leaves" said the|wind one day|
 B3 c/d/ c/c/ z/ c/ | !tenuto!E!tenuto!C G2 z2 |!p! FE/F/ G/F/ z/ D/ EB | %8
w: "Come o'er the mea- dows with|me and play,|Put on your dress- es of red and|
!p!"^poco cresc." D2 EF/G/ F2 | GA/B/ A!<(!G/F/ E!<)!F | G!>(!D"^poco rit." E2 F2!>)! | G4 z2 | %12
w: gold, Sum- mer is gone,|Sum- mer is gone and the days grow|cold, the days grow|cold."|
 z6 || z!p! D EF/G/ F2 | z2 E2 B>G | AB/c/ AE A2 | z D E!>(!F/G/ F!>)!D | %17
w: |and they were con- tent,|Soon, fast a-|sleep in their earth- y beds,|The snow laid a blan- ket,|
!<(! z F!<)! GA/B/!f!!>(! c!>)!A |!mf!"^dim. e  rit." (G3!p!!<(! F/E/)!<)! F!>)!!>(!F | %19
w: The snow laid a blan- ket|o~\-- * * \-~~ver their|
"^a tempo" G4 z2 | z6 | z6 |] %22
w: heads.|||
V:3
 (D>G B)([DG] [EA]).[CF] | (GF/E/ F)(D c2) | (D>G B)([DG] [EA]).F | .[DG](D/C/ B,).D (EF/G/) | %4
 (d3 c/B/) (c/B/) z/ A/ | !tenuto!B!tenuto!e d4 | (AA/B/) (c/B/) z/ (A/ B)d | A3 (d G)A | %8
 (FG/A/) G2 AB/c/ | B z/ B/ Bc/d/ ed | B3 A/G/ [DB][=CA] | GF/E/ D2 (G=F/_E/) | %12
 (G=F/_E/ D).G [_A,D_B]2 || GA/B/ A4 | AG/=F/ E2 B>^G | AB/c/ AE e2 | FG/A/!<(! GD G!<)!A/B/ | %17
 B3 z ed |!>(! B!>)!A/G/!<(! B2!<)!"^rit."!>(! c/B/!>)!A |"^a tempo" [DG]F/E/ Dd BA/G/ | %20
 Bg dc/B/ db | z6 |] %22
V:4
 B,2 x2 x2 | DB, CD EF | B,3 x x2 | x2 x2 B2 | [DF][EG] [FA]2 F2 | (G3 A/B/) (A/GF/) | D3 z G2 | %7
 (FE/F/ G/F/) z/ D/ EF | D2 EF/G/ F2 | GA/B/- AG/F/ EF | GF/G/ [^CE]2 F2 | B,3 B, CA, | %12
 CA, _B,2 x2 || z2 ^C2 x2 | x6 | [B,D]3 E AG | x6 | x6 | x6 | x6 | G2 BA/G/ Bd | x6 |] %22
V:5
 x6 | x6 | x6 | x6 | x6 | x6 | x6 | x6 | x6 | x6 | z D x2 x2 | x6 | x6 || z2 EF/G/ [DF]2 | x6 | %15
 x6 | x6 | x6 | x6 | x6 | x6 | x6 |] %22
V:6
!p! x2 z (B, C).A, | (B,G, A,)F, (G,A,) | z2 z (B, C).A, | z2 z (B, G,)G,, | (A,D,) z (A, D)D, | %5
 z (C B,)G,, !tenuto![B,D]2 | ([C,C]G,) z (E D)B, |!p! .C.D, z (D, B,)G, | %8
"^poco cresc." A,2 B,2 [D,A,]2 | D2 z G, CA, |"^dim e poco rit." G,D,!>(! G,,G,!>)! D,2 | %11
 x x!<(! z D, _E,C,!<)! |!>(! _E,C, D,2!>)! D,_B,, ||!p! B,2 G,F,/E,/ F,2 | C,E,A,C ^G,A,/B,/ | %15
 A,2 C2 A,2 | z A,!<(! B,G,!<)! D2 | B,2 B,2 x2 |!>(! G,2!>)!!p!!<(! G,2!<)!!>(! A,!>)!C | %19
!p! B,2 B,2 x2 | [G,D]2 G2 [G,,D,]2 | .[G,D]2 z2 z2 |] %22
V:7
 G,D, G,,2 z2 | z2 z2 D,2 | G,D, G,,2 z2 | B,D, G,,3 G,,- | G,, G,,2 z z2 | G,C, G,2 x2 | %6
 x2 G,,2 G,2 | x2 G,,2 z2 | z G,,2 G,,2 G,, | G,D, G,,2 z2 | x6 | (G,D, G,,2) z2 | %12
 G,,3 G,, =F,,2 || G,2 A,,2 D,2 | C,3 C, E,2 | A,,E, A,2 C,2 | D,4 D,2 | ^D,2 E,2 .E,.F, | %18
 x2 B,,2 D,2 | G,,>D, B,2 E2 | x6 | x6 |] %22

